img/graphlinqprotocol.svg

<?xml version="1.0" encoding="utf-8"?>
<!-- Generator: Adobe Illustrator 25.1.0, SVG Export Plug-In . SVG Version: 6.00 Build 0)  -->
<svg version="1.1" id="Calque_1" xmlns="http://www.w3.org/2000/svg" xmlns:xlink="http://www.w3.org/1999/xlink" x="0px" y="0px"
	 viewBox="0 0 202.4 36.9" style="enable-background:new 0 0 202.4 36.9;" xml:space="preserve">
<style type="text/css">
	.st0{fill:url(#SVGID_1_);}
	.st1{fill:#ece7fd;}
</style>
<g>
	<g>
		<linearGradient id="SVGID_1_" gradientUnits="userSpaceOnUse" x1="19.4467" y1="0" x2="19.4467" y2="36.8789">
			<stop  offset="0" style="stop-color:#9A23E6"/>
			<stop  offset="1" style="stop-color:#5519EE"/>
		</linearGradient>
		<path class="st0" d="M28.6,36.9C28.6,36.9,28.6,36.9,28.6,36.9h-16c0,0,0,0,0,0c-1.6,0-3.1-0.9-3.9-2.3L0.6,20.7
			c-0.8-1.4-0.8-3.1,0-4.4L8.7,2.2C9.5,0.8,10.9,0,12.5,0h16.1c0,0,0,0,0,0c1.6,0,3.2,0.9,4,2.3l5.8,10.1c0.1,0.1,0.1,0.3,0,0.4
			c0,0.1-0.1,0.2-0.2,0.3l-2,1.1c-2.1,1.2-4.8,0.5-6-1.6L27,7.1h-6.7v22.7H27l3.3-5.7l-5.5-3.2c-1.1-0.6-1.8-1.8-1.8-3.1v-5.4
			c0-0.2,0.1-0.3,0.2-0.4c0.2-0.1,0.3-0.1,0.5,0l13.3,7.6c0.9,0.5,1.5,1.3,1.7,2.2c0.2,0.9,0.1,1.9-0.4,2.8l-5.8,10
			C31.8,36,30.3,36.9,28.6,36.9z M12.6,35.9h16c1.3,0,2.5-0.7,3.2-1.8l5.8-10c0.4-0.6,0.5-1.3,0.3-2c-0.2-0.7-0.6-1.3-1.2-1.6
			l-2.7-1.5c0,0,0,0,0,0l-9.8-5.7v4.5c0,0.9,0.5,1.8,1.3,2.3l5.9,3.4c0.2,0.1,0.3,0.4,0.2,0.7l-3.7,6.4c-0.1,0.2-0.3,0.2-0.4,0.2
			h-7.5c-0.3,0-0.5-0.2-0.5-0.5V6.6c0-0.3,0.2-0.5,0.5-0.5h7.5c0.2,0,0.3,0.1,0.4,0.2l3.3,5.7c0.9,1.6,3,2.2,4.7,1.3l1.6-0.9
			l-5.6-9.6C31.1,1.7,29.9,1,28.6,1c0,0,0,0,0,0H12.5c-1.2,0-2.3,0.6-2.9,1.7L1.5,16.8c-0.6,1.1-0.6,2.4,0,3.4l8.1,13.9
			C10.2,35.2,11.3,35.9,12.6,35.9C12.6,35.9,12.6,35.9,12.6,35.9z M13.7,30.8c-0.2,0-0.3-0.1-0.4-0.2L6.4,18.8
			c-0.1-0.2-0.1-0.4,0-0.6l6.9-11.8c0.1-0.2,0.3-0.3,0.6-0.2c0.2,0.1,0.4,0.3,0.4,0.5v23.7c0,0.2-0.2,0.4-0.4,0.5
			C13.8,30.8,13.7,30.8,13.7,30.8z M7.4,18.4l5.8,10V8.5L7.4,18.4z"/>
	</g>
	<g>
		<path class="st1" d="M73.4,12.4v-1.6h4.6v15.1c0,2.5-0.8,4.4-2.4,5.7c-1.6,1.3-3.6,1.9-5.9,1.9c-3.6,0-6.1-1.3-7.5-3.8l4.1-2.4
			c0.7,1.3,2,2,3.6,2c1.1,0,2-0.3,2.7-0.9c0.6-0.6,0.9-1.4,0.9-2.5v-1.5c-1.1,1.4-2.7,2.1-4.6,2.1c-2.2,0-4.1-0.8-5.6-2.4
			c-1.5-1.6-2.2-3.5-2.2-5.7c0-2.2,0.7-4.1,2.2-5.7c1.5-1.6,3.3-2.4,5.6-2.4C70.8,10.3,72.3,11,73.4,12.4z M66.8,21
			c0.7,0.7,1.7,1,2.8,1c1.1,0,2-0.3,2.8-1c0.7-0.7,1.1-1.5,1.1-2.7c0-1.1-0.4-2-1.1-2.7c-0.7-0.7-1.7-1-2.8-1c-1.1,0-2,0.3-2.8,1
			c-0.7,0.7-1.1,1.5-1.1,2.7C65.7,19.5,66.1,20.4,66.8,21z"/>
		<path class="st1" d="M86.3,10.7v2.8c0.3-1,0.9-1.8,1.8-2.3c0.9-0.6,1.9-0.8,3-0.8v5.4c-1.2-0.2-2.3,0-3.3,0.6
			c-1,0.6-1.5,1.6-1.5,3v7.2h-4.8V10.7H86.3z"/>
		<path class="st1" d="M104.4,12.2v-1.5h4.8v15.9h-4.8v-1.5c-1.1,1.3-2.7,1.9-4.7,1.9c-2.1,0-3.9-0.8-5.4-2.4
			c-1.5-1.6-2.2-3.6-2.2-6c0-2.4,0.7-4.3,2.2-5.9c1.5-1.6,3.3-2.4,5.4-2.4C101.7,10.3,103.3,10.9,104.4,12.2z M96.8,18.7
			c0,1.2,0.3,2.1,1,2.8c0.7,0.7,1.6,1,2.7,1c1.1,0,2-0.3,2.7-1c0.7-0.7,1-1.6,1-2.8c0-1.2-0.3-2.1-1-2.8c-0.7-0.7-1.6-1-2.7-1
			c-1.1,0-2,0.3-2.7,1C97.2,16.6,96.8,17.5,96.8,18.7z"/>
		<path class="st1" d="M122.2,10.3c2.1,0,3.9,0.8,5.4,2.4c1.5,1.6,2.2,3.6,2.2,5.9c0,2.4-0.7,4.4-2.2,6c-1.5,1.6-3.3,2.4-5.4,2.4
			c-2.1,0-3.6-0.6-4.7-1.9V33h-4.8V10.7h4.8v1.5C118.5,10.9,120.1,10.3,122.2,10.3z M118.5,21.5c0.7,0.7,1.6,1,2.7,1
			c1.1,0,2-0.3,2.7-1c0.7-0.7,1.1-1.6,1.1-2.8c0-1.2-0.4-2.1-1.1-2.8c-0.7-0.7-1.6-1-2.7-1c-1.1,0-2,0.3-2.7,1c-0.7,0.7-1,1.6-1,2.8
			C117.4,19.9,117.8,20.8,118.5,21.5z"/>
		<path class="st1" d="M141.8,10.3c1.7,0,3.1,0.6,4.2,1.7c1.1,1.2,1.7,2.8,1.7,4.8v9.8H143v-9.1c0-0.9-0.3-1.6-0.8-2.1
			s-1.2-0.8-2-0.8c-0.9,0-1.7,0.3-2.2,0.8c-0.5,0.6-0.8,1.4-0.8,2.4v8.7h-4.8V4.4h4.8v7.9C138.2,10.9,139.7,10.3,141.8,10.3z"/>
		<path class="st1" d="M155.8,26.6H151V3.4h4.8V26.6z"/>
		<path class="st1" d="M164.1,26.6h-4.8V10.7h4.8V26.6z"/>
		<path class="st1" d="M176.9,10.3c1.7,0,3.1,0.6,4.2,1.7c1.1,1.2,1.7,2.8,1.7,4.8v9.8H178v-9.1c0-0.9-0.3-1.6-0.8-2.1
			s-1.2-0.8-2-0.8c-0.9,0-1.7,0.3-2.2,0.8c-0.5,0.6-0.8,1.4-0.8,2.4v8.7h-4.8V10.7h4.8v1.5C173.3,10.9,174.8,10.3,176.9,10.3z"/>
		<path class="st1" d="M197.6,12.2v-1.5h4.8V33h-4.8v-7.9c-1.1,1.3-2.7,1.9-4.7,1.9c-2.1,0-3.9-0.8-5.4-2.4c-1.5-1.6-2.2-3.6-2.2-6
			c0-2.4,0.7-4.3,2.2-5.9c1.5-1.6,3.3-2.4,5.4-2.4C195,10.3,196.5,10.9,197.6,12.2z M190.1,18.7c0,1.2,0.3,2.1,1,2.8
			c0.7,0.7,1.6,1,2.7,1c1.1,0,2-0.3,2.7-1c0.7-0.7,1-1.6,1-2.8c0-1.2-0.3-2.1-1-2.8c-0.7-0.7-1.6-1-2.7-1c-1.1,0-2,0.3-2.7,1
			C190.4,16.6,190.1,17.5,190.1,18.7z"/>
	</g>
</g>
</svg>

<svg width="39" height="37" viewBox="0 0 39 37" fill="none" xmlns="http://www.w3.org/2000/svg">
<path d="M28.6 36.9H12.6C11 36.9 9.5 36 8.7 34.6L0.6 20.7C-0.2 19.3 -0.2 17.6 0.6 16.3L8.7 2.2C9.5 0.8 10.9 0 12.5 0H28.6C30.2 0 31.8 0.9 32.6 2.3L38.4 12.4C38.5 12.5 38.5 12.7 38.4 12.8C38.4 12.9 38.3 13 38.2 13.1L36.2 14.2C34.1 15.4 31.4 14.7 30.2 12.6L27 7.1H20.3V29.8H27L30.3 24.1L24.8 20.9C23.7 20.3 23 19.1 23 17.8V12.4C23 12.2 23.1 12.1 23.2 12C23.4 11.9 23.5 11.9 23.7 12L37 19.6C37.9 20.1 38.5 20.9 38.7 21.8C38.9 22.7 38.8 23.7 38.3 24.6L32.5 34.6C31.8 36 30.3 36.9 28.6 36.9ZM12.6 35.9H28.6C29.9 35.9 31.1 35.2 31.8 34.1L37.6 24.1C38 23.5 38.1 22.8 37.9 22.1C37.7 21.4 37.3 20.8 36.7 20.5L34 19L24.2 13.3V17.8C24.2 18.7 24.7 19.6 25.5 20.1L31.4 23.5C31.6 23.6 31.7 23.9 31.6 24.2L27.9 30.6C27.8 30.8 27.6 30.8 27.5 30.8H20C19.7 30.8 19.5 30.6 19.5 30.3V6.6C19.5 6.3 19.7 6.1 20 6.1H27.5C27.7 6.1 27.8 6.2 27.9 6.3L31.2 12C32.1 13.6 34.2 14.2 35.9 13.3L37.5 12.4L31.9 2.8C31.1 1.7 29.9 1 28.6 1H12.5C11.3 1 10.2 1.6 9.6 2.7L1.5 16.8C0.9 17.9 0.9 19.2 1.5 20.2L9.6 34.1C10.2 35.2 11.3 35.9 12.6 35.9ZM13.7 30.8C13.5 30.8 13.4 30.7 13.3 30.6L6.4 18.8C6.3 18.6 6.3 18.4 6.4 18.2L13.3 6.4C13.4 6.2 13.6 6.1 13.9 6.2C14.1 6.3 14.3 6.5 14.3 6.7V30.4C14.3 30.6 14.1 30.8 13.9 30.9C13.8 30.8 13.7 30.8 13.7 30.8ZM7.4 18.4L13.2 28.4V8.5L7.4 18.4Z" fill="url(#paint0_linear)"/>
<defs>
<linearGradient id="paint0_linear" x1="19.4467" y1="0" x2="19.4467" y2="36.8789" gradientUnits="userSpaceOnUse">
<stop stop-color="#9A23E6"/>
<stop offset="1" stop-color="#5519EE"/>
</linearGradient>
</defs>
</svg>
